/* XPM */
static char * EA_xpm[] = {
"64 64 42 1",
" 	c #000000",
".	c #5B6567",
"+	c #495254",
"@	c #1A1A18",
"#	c #242423",
"$	c #353734",
"%	c #49383D",
"&	c #809EA5",
"*	c #625249",
"=	c #301E18",
"-	c #772215",
";	c #D12F11",
">	c #AB8F12",
",	c #DECD02",
"'	c #6D8084",
")	c #342C28",
"!	c #ABABAB",
"~	c #AEAEAE",
"{	c #BEBFBE",
"]	c #E1E1E1",
"^	c #BDBDBD",
"/	c #EFEFEF",
"(	c #EEEEEE",
"_	c #C4C4C4",
":	c #656664",
"<	c #D1D1D1",
"[	c #F5F5F5",
"}	c #ADADAD",
"|	c #DADADA",
"1	c #CCCCCC",
"2	c #F4F4F4",
"3	c #A2A2A1",
"4	c #FBFBFB",
"5	c #7D7D7C",
"6	c #FFFFFF",
"7	c #E9E9E9",
"8	c #E2E2E2",
"9	c #828382",
"0	c #7E7E7E",
"a	c #CBCBCB",
"b	c #E8E8E8",
"c	c #3D241E",
"                                                                ",
".............+.+.+.+++                    ++.+.+...........+.+..",
"++++++++++++++++++++++ @#@ @#@@@#@ @#@@@@ ++++++++++++++++++++++",
"++++++++++++++++++++++ #$@ $$##$$@ $$##$@ ++++++++++++++++++++++",
"++++++++++++++++%&.+++ #$#@$$##$$#@$$##$# ++%&.+++++++++++++++++",
"++++++++++++++++%..+++ #$@ $$##$$@ $$##$# ++%..+++++++++++++++++",
"++++++++%+++++++%%++++ #$#@$$##$$#@$$##$# ++%%%+++++++++++++++++",
"+++++++%@%++++++++++++ #$@ $$##$$@ $$##$# +++%%+++++++++++++++++",
".......***............ #$#@$$##$$#@$$##$# ...**.................",
"+++++++%%%++++.+.+++++ #$# $$##$$# $$##$# +++%++++++.+.+.+++++++",
".......**............. #$#@$$##$$#@$$##$# ....*.................",
".......***............ #$#@$$##$$#@$$##$# ...*..................",
".......**............. @$#@$$##$$#@$$##$# ......................",
".......**............. =$#@$$##$$#@$$##$# ......................",
"........*............. =$#@$$##$$#@$$##$# ......................",
".......**............. =##@$$##$$#@$$##$# ......................",
"........*.............  -#@$$##$$#@$$##$# ......................",
"........*............. @-@@#$##$$#@$$##$# ......................",
"...................... #@;@>###$$#@$$##$# ......................",
"........*............. #$ ;#,##$$#@$$##$# ..................+'..",
"...................... #$#=-,##$$#@$$##$# .................+&...",
"...................... #$#> ,@#$##@$$##$# .................'....",
"...................... #$#>#,-@#>#@$$##$# ...............+......",
"...................... #$#,#, ;;=,@$$##$@ ............+.+.......",
"...................... #$#,#@,@=-,-###@#= ...........+'+.+'.....",
"...................... ##, $# >> , ;;;;-  ..........+&+.+&......",
"...................... # ,@$$@ @# ,#@  #= .........+&..+'.......",
"...+..................  > @$$#@#$#,##@##= .........'..+.........",
"....+................. =##@$$##$$# ,###>  ......................",
"...++.................  ##@$$##$$#@@,,,@# ......................",
"..+++................. #$#@$$##$$#@#@  ## ......................",
"..++.................. #$#@$$##$$#@$###$# ......................",
"..+++................. #$#@$$##$$#@$$##$# ......................",
"...+............%&+... #$#@$$##$$#@$$##$# ..%&+.................",
"....+...........%++... #$#@$$##$$#@$$##$# ..%++.................",
"................%%.... #$#@$$##$$#@$$##$# ..%%..................",
"...................... #$#@$$##$$#@$$##$# ......................",
"&&&&&&&&&&&&&&&&&&&.&. )$#@$$##$$#@$$##$) .&.&&&&&&.&.&.&.&&&&&&",
"                       )$#!~{]^{/(_:$##$)                       ",
"                      @$$#<[{]^{}!|~$##$$@                      ",
"#@ @#@@@#@ @#@@@#@ @#@#$$#12$##$$#@$$##$$# @#@@@#@ @#@@@#@ @#@@@",
"$@ $$#@$$@ $$#@$$@ $$##$$#34$##$$#@$$##$$@ $$#@$$@ $$#@$$@ $$#@$",
"$@ $$##$$@ $$##$$@ $$##$$#34$##$$#@$$##$$# $$##$$@ $$##$$@ $$##$",
"$@ $$##$$@ $$##$$@ $$##$$#56$##$$#@$$##$$@ $$##$$@ $$##$$@ $$##$",
"$#@$$##$$#@$$##$$#@$$##$$#5666666667$##$$#@$$##$$#@$$##$$#@$$##$",
"$@ $$##$$@ $$##$$@ $$##$$#56$##$$#@$$##$$@ $$##$$@ $$##$$@ $$##$",
"$#@$$##$$#@$$##$$#@$$##$$#34$##$$#@$$##$$#@$$##$$#@$$##$$#@$$##$",
"$# $$##$$# $$##$$# $$##$$#34$##$$#@$$##$$# $$##$$# $$##$$# $$##$",
"$#@$$##$$#@$$##$$#@$$##$$#]89^099059$##$$#@$$##$$#@$$##$$#@$$##$",
"$#@$$##$$#@$$##$$#@$$##$$#a27^b77bb7$##$$#@$$##$$#@$$##$$#@$$##$",
"$@@$$##$$@@$###$$@@$$##$$@@$###$$@@$$##$$@@$###$$@@$$##$$@@$###$",
"$#@$$##$$#@$$##$$#@$$##$$#@$$##$$#@$$##$$#@$$##$$#@$$##$$#@$$##$",
"#@ $###$#@ $###$#@ $###$#@ $###$#@ $###$#@ $###$#@ $###$#@ $###$",
"$@@#$##$$@@#$##$$@@#$##$$@@#$##$$@@#$##$$@@#$##$$@@#$##$$@@#$##$",
"#@ $##@$#@ $##@$#@ $##@$#@ $##@$#@ $##@$#@ $##@$#@ $##@$#@ $##@$",
"#  ##@ ##  ##@ ##  ##@ ##  ##@ ##  ##@ ##  ##@ ##  ##@ ##  ##@ #",
"&&&&&&&&&'&&&&'&'&'&'&''''''&'&'&'&&&&&&&&&&&&&&&&&&&&&&&'&&&&'&",
"........+................+......+.......+.......+.+.....+.......",
".+.....+...............++..............***.......+.....+........",
"+..&+......&+......&+..+..*&+......&+.*.*..&+...+..&+......&+...",
"..%++.....%++.....%++.+.+.%++..+..%++..*..%++..+..%++.....%++..+",
"+.%%......%%......%%...+..%%*.....%%..*...%%..++..%%......%%..+.",
"......................+....**........*........+..............+.+",
"%cccccc%c%c%%%%%%%c%c%@%@%@@@@%@%%%%%%%%c%c%%c%c%cccccc%c%c%%%%%"};
