/* XPM */
static char * NO_xpm[] = {
"64 64 35 1",
" 	c #000000",
".	c #5B6567",
"+	c #495254",
"@	c #49383D",
"#	c #1A1A18",
"$	c #625249",
"%	c #6D8084",
"&	c #809EA5",
"*	c #242423",
"=	c #353734",
"-	c #7C7D7C",
";	c #393938",
">	c #BEBFBE",
",	c #EAEAEA",
"'	c #787877",
")	c #D2D2D2",
"!	c #E2E2E2",
"~	c #FFFFFF",
"{	c #E9E9E9",
"]	c #EDEDED",
"^	c #E8E8E8",
"/	c #7E7E7E",
"(	c #BDBDBD",
"_	c #FAFAFA",
":	c #F4F4F4",
"<	c #CDCDCD",
"[	c #FCFCFC",
"}	c #FBFBFB",
"|	c #A3A3A2",
"1	c #E7E7E7",
"2	c #E1E1E1",
"3	c #7A7A7A",
"4	c #F6F6F6",
"5	c #828382",
"6	c #3D241E",
"                                                                ",
".............+.+..........+.+.+............................+.+..",
"++++++++++++++++++++++++++++++++++++++++++++++++++++++++++++++++",
"++++++++++++++++++++++++++++++++++++++++++++++++++++++++++++++++",
"++++++++++++++++++++++++++++++++++++++++++++++++++++++++++++++++",
"++++++++++++++++++++++++++++++++++++++++++++++++++++++++++++++++",
"++++++++@+++++++++++++++++++++++++++++++++++++++++++++++++++++++",
"+++++++@#@++++++++++++++++++++++++++++++++++++++++++++++++++++++",
".......$$$......................................................",
"+++++++@@@++++++++++++++++++++++++++++++++++++++++++++++++++++++",
".......$$.......................................................",
".......$$$...$..................................................",
".......$$...$@$.................................................",
".......$$...$$$.................................................",
"........$....$$.................................................",
".......$$....$..................................................",
"........$.....$.................................................",
"........$....$..................................................",
"................................................................",
"........$...................................................+%..",
"...........................................................+&...",
"...........................................................%....",
".........................................................+......",
"......................................................+.+.......",
".....................................................+%+.+%.....",
"....................................................+&+.+&......",
"...................................................+&..+%.......",
"...+...............................................%..+.........",
"....+...........................................................",
"...++...........................................................",
"..+++...........................................................",
"..++............................................................",
"..+++...........................................................",
"...+............................................................",
"....+...........................................................",
"................................................................",
"................................................................",
"&&&&&&&&&&&&&&&&&&&&&&&&&&&&.&.&&&&.&&&&&&&.&.&.&&&.&.&.&.&&&&&&",
"                                                                ",
"                                                                ",
"*# #*###*# #*###*# #*###*# #*###*# #*###*# #*###*# #*###*# #*###",
"=# ==*#==# ==*#==# ==*#==# ==*#==# ==*#==# ==*#==# ==*#==# ==*#=",
"=# ==**==# ==**==# ==**==# ==**==# =-;*==# ==**==# ==**==# ==**=",
"=# ==**==# ==**==# ==**==# >,'*==# =)'*==# ==**==# ==**==# ==**=",
"=*#==**==*#==**==*#==**==*#!~{*==*#=]]*==*#==**==*#==**==*#==**=",
"=# ==**==# ==**==# ==**==# !~^/==# =~(*==# ==**==# ==**==# ==**=",
"=*#==**==*#==**==*#==**==*#^_*:<=*#=~(*==*#==**==*#==**==*#==**=",
"=* ==**==* ==**==* ==**==* ^_*(>=* =~(*==* ==**==* ==**==* ==**=",
"=*#==**==*#==**==*#==**==*#^_**={*#=~/*==*#==**==*#==**==*#==**=",
"=*#==**==*#==**==*#==**==*#[:**=<(#=}|*==*#==**==*#==**==*#==**=",
"=##==**==##=***==##==**==##_1**==22=~/*==##=***==##==**==##=***=",
"=*#==**==*#==**==*#==**==*#~!**==*^<}|*==*#==**==*#==**==*#==**=",
"*# =***=*# =***=*# =***=*#3_2**=*# _4/*=*# =***=*# =***=*# =***=",
"=##*=**==##*=**==##*=**==##(>**==##^5**==##*=**==##*=**==##*=**=",
"*# =**#=*# =**#=*# =**#=*# =**#=*# =**#=*# =**#=*# =**#=*# =**#=",
"*  **# **  **# **  **# **  **# **  **# **  **# **  **# **  **# *",
"&&&&&&&&&%&&&&%&%&%&%&%%%%%%&%&%&%&&&&&&&&&&&&&&&&&&&&&&&%&&&&%&",
"........+................+.............+.+......+.+.....+.......",
".+.....+...............++...............+........+.....+........",
"+..&+......&+......&+..+...&+......&+..+...&+...+..&+......&+...",
"..@++.....@++.....@++.+.+.@++.....@++.....@++..+..@++.....@++..+",
"+.@@......@@......@@...+..@@......@@......@@..++..@@......@@..+.",
"......................+.............+.........+..............+.+",
"@666666@6@6@@@@@@@6@6@#@#@####@#@@@@@@@@6@6@@6@6@666666@6@6@@@@@"};
