/* XPM */
static char * SO_xpm[] = {
"64 64 24 1",
" 	c #000000",
".	c #5B6567",
"+	c #495254",
"@	c #1A1A18",
"#	c #49383D",
"$	c #809EA5",
"%	c #342C28",
"&	c #6D8084",
"*	c #BD971B",
"=	c #242423",
"-	c #353734",
";	c #BEBFBE",
">	c #BCBCBC",
",	c #8F908F",
"'	c #E9E9E9",
")	c #CDCDCD",
"!	c #7E7E7E",
"~	c #F4F4F4",
"{	c #FFFFFF",
"]	c #E8E8E8",
"^	c #CCCCCC",
"/	c #BDBDBD",
"(	c #E2E2E2",
"_	c #3D241E",
"                                                                ",
"............+....+.+++@ ...................................+.+..",
"++++++++++++++++++++++@ .+++++++++++++++++++++++++++++++++++++++",
"++++++++++++++++++++++@ .+++++++++++++++++++++++++++++++++++++++",
"++++++++++++++++#$.+++@ .+#$.+++++++++++++++++++++++++++++++++++",
"++++++++++++++++#..+++@ .+#..+++++++++++++++++++++++++++++++++++",
"++++++++++++++++##++++@ .+##++++++++++++++++++++++++++++++++++++",
"++++++++++++++++++++++@ .+++++++++++++++++++++++++++++++++++++++",
"......................%@$.......................................",
"++++++++++++++++++++++@ .+++++++++++++++++++++++++++++++++++++++",
"......................%@$.......................................",
"......................@ $.......................................",
"......................%@$.......................................",
"......................%@$.......................................",
"......................%@$.......................................",
"......................@@&...$.......$...........................",
"......................%@$..#.......#............................",
"......................@@&.......................................",
"......................%@&&&&&&&&&&&.&.&.........................",
"......................%%%%%%%%%%%@%@%@@@ +......................",
"......................+%%%%%%%%%%%@%@%@@@ ......................",
"........................................@ &.....................",
"........................................@ $.....................",
"............................$.......$...@ $.....................",
"...........................#.......#....@ $.....................",
"........................................@ $.....................",
"........................................@ $.....................",
"........................................@ $.....................",
"***************************************.@ $.********************",
"***************************************.@ &.********************",
"***************************************.@@$.********************",
"***************************************.@%&.********************",
"........................................%@&.....................",
"..................................#$+...@%&.#$+.................",
"..................................#++...%@..#++.................",
"..................................##....@%..##..................",
"........................................%%......................",
"$$$$$$$$$$$$$$$$$$$$$$$$$$$$$$$$$$$$$.$.%%.$.$$$$$$.$.$.$.$$$$$$",
"                                                                ",
"                                                                ",
"=@ @=@@@=@ @=@@@=@ @=@@@=@ @=@@@=@ @=@@@=@ @=@@@=@ @=@@@=@ @=@@@",
"-@ --=@--@ --=@--@ --=@--@ --=@--@ --=@--@ --=@--@ --=@--@ --=@-",
"-@ --==--@ --==--@ --==--@ --==-;>>,,==--@ --==--@ --==--@ --==-",
"-@ --==--@ --==--@ --==--@ --==')>>,,==--@ --==--@ --==--@ --==-",
"-=@--==--=@--==--=@--==--=@--=!'-=@--==--=@--==--=@--==--=@--==-",
"-@ --==--@ --==--@ --==--@ --=!~;@ --==--@ --==--@ --==--@ --==-",
"-=@--==--=@--==--=@--==--=@--==;;{>~;==--=@--==--=@--==--=@--==-",
"-= --==--= --==--= --==--= --==--=>);==--= --==--= --==--= --==-",
"-=@--==--=@--==--=@--==--=@--==--=@--]!--=@--==--=@--==--=@--==-",
"-=@--==--=@--==--=@--==--=@--==--=@--]!--=@--==--=@--==--=@--==-",
"-@@--==--@@-===--@@--==--@@-===--@@-;]!--@@-===--@@--==--@@-===-",
"-=@--==--=@--==--=@--==--=@--^~;;/>((/=--=@--==--=@--==--=@--==-",
"=@ -===-=@ -===-=@ -===-=@ -=//;/>>(===-=@ -===-=@ -===-=@ -===-",
"-@@=-==--@@=-==--@@=-==--@@=-==--@@=-==--@@=-==--@@=-==--@@=-==-",
"=@ -==@-=@ -==@-=@ -==@-=@ -==@-=@ -==@-=@ -==@-=@ -==@-=@ -==@-",
"=  ==@ ==  ==@ ==  ==@ ==  ==@ ==  ==@ ==  ==@ ==  ==@ ==  ==@ =",
"$$$$$$$$$&$$$$&$&$&$&$&&&&&&$&$&$&$$$$$$$$$$$$$$$$$$$$$$$&$$$$&$",
"........+................+.............+.+......+.+.....+.......",
".+.....+...............++...............+........+.....+........",
"+..$+......$+......$+..+...$+......$+..+...$+...+..$+......$+...",
"..#++.....#++.....#++.+.+.#++.....#++.....#++..+..#++.....#++..+",
"+.##......##......##...+..##......##......##..++..##......##..+.",
"......................+.............+.........+..............+.+",
"#______#_#_#######_#_#@#@#@@@@#@########_#_##_#_#______#_#_#####"};
