/* XPM */
static char * WE_xpm[] = {
"64 64 28 1",
" 	c #000000",
".	c #5B6567",
"+	c #495254",
"@	c #1A1A18",
"#	c #809EA5",
"$	c #49383D",
"%	c #342C28",
"&	c #6D8084",
"*	c #BD971B",
"=	c #242423",
"-	c #353734",
";	c #ACACAC",
">	c #E9E9E9",
",	c #7E7E7E",
"'	c #E4E4E4",
")	c #BEBFBE",
"!	c #BDBDBD",
"~	c #CDCDCD",
"{	c #F4F4F4",
"]	c #E2E2E2",
"^	c #E1E1E1",
"/	c #E8E8E8",
"(	c #828382",
"_	c #FFFFFF",
":	c #CCCCCC",
"<	c #7A7A7A",
"[	c #BCBCBC",
"}	c #3D241E",
"                                                                ",
".............+.+.+.+++@ ......+.+.+.++++  ++.+.+...........+.+..",
"++++++++++++++++++++++@ .+++++++++++++++  ++++++++++++++++++++++",
"++++++++++++++++++++++@ .+#++++++++++#++  ++++++++++++++++++++++",
"++++++++++++++++$#.+++@ .$++++++++++$+++  ++$#.+++++++++++++++++",
"++++++++++++++++$..+++@ .+++++++++++++++ @++$..+++++++++++++++++",
"++++++++++++++++$$++++@ .+++++++++++++++@ ++$$++++++++++++++++++",
"++++++++++++++++++++++@ .+++++++++++++++ @++++++++++++++++++++++",
"......................%@.+++++++++++++++@ ......................",
"++++++++++++++++++++++@ .+++++++++++++++ @++++++++++++++++++++++",
"......................%@#...............@ ......................",
"......................@ .+++++++++++++++ %......................",
"......................%@#...............%@......................",
"......................%@#...............@%......................",
"......................%@#...............%@......................",
"......................%@#...............@%......................",
"......................%@#...............%@......................",
"......................@@#...............@%......................",
"......................%@#...............%%......................",
"......................@@&...............@%......................",
"......................%@#...............%%......................",
"......................@@&...............@%......................",
"......................%@#...............%%......................",
"......................@@&...............@%......................",
"......................@@&...............@%......................",
"......................@@&...............@%......................",
"......................@@&...............@%......................",
"......................@@&...............%%......................",
"*********************.@@................@%.*********************",
"*********************.@@&...............%%.*********************",
"*********************.@@.**************.@%.*********************",
"*********************.@%&**************.%%.*********************",
"......................%@.**************.%%......................",
"................$#+...@%.**************.%%..$#+.................",
"................$++...%@................%%..$++.................",
"................$$....@%................%%..$$..................",
"......................%%..#..........#..%%......................",
"###################.#.%%.$..........$...%%.#.######.#.#.#.######",
"                       %................%                       ",
"                        ..##########.#..                        ",
"=@ @=@@@=@ @=@@@=@ @=@                     @=@@@=@ @=@@@=@ @=@@@",
"-@ --=@--@ --=@--@ --=@                  @ --=@--@ --=@--@ --=@-",
"-@ --==--@ --==--@ --==-@@ @=@@@=@ @=@@@=@ --==--@ --==--@ --==-",
"-@ --==--@ --==--@ --==--@ --==--@ --==--@ --==--@ --==--@ --==-",
"-=@--==--=@--==--=@--==--=@--==--=@--==--=@--==--=@--==--=@--==-",
"-@ --==--@ --==--@ --;;--@ --==--@ ->,=--@ --==--@ --==--@ --==-",
"-=@--==--=@--==--=@--''--=@))==--=@->,=--=@--==--=@--==--=@--==-",
"-= --==--= --==--= --!!--= ~{==--= -]^=--= --==--= --==--= --==-",
"-=@--==--=@--==--=@--/,--=@~{==--=@-)!=--=@--==--=@--==--=@--==-",
"-=@--==--=@--==--=@--/,--=@~{==--=@-(/=--=@--==--=@--==--=@--==-",
"-@@--==--@@-===--@@--/,--@@]_==--@@-)!=--@@-===--@@--==--@@-===-",
"-=@--==--=@--==--=@--/,--=@_{:=--=@->,=--=@--==--=@--==--=@--==-",
"=@ -===-=@ -===-=@ -=,/-=@<>=_=-=@ -/,=-=@ -===-=@ -===-=@ -===-",
"-@@=-==--@@=-==--@@=-=/~-@[=-=_)(@@{~==--@@=-==--@@=-==--@@=-==-",
"=@ -==@-=@ -==@-=@ -==@)_/[-==@)/__-==@-=@ -==@-=@ -==@-=@ -==@-",
"=  ==@ ==  ==@ ==  ==@ ==< ==@ ==  ==@ ==  ==@ ==  ==@ ==  ==@ =",
"#########&####&#&#&#&#&&&&&&#&#&#&#######################&####&#",
"........+................+.............+.+......+.+.....+.......",
".+.....+...............++...............+........+.....+........",
"+..#+......#+......#+..+...#+......#+..+...#+...+..#+......#+...",
"..$++.....$++.....$++.+.+.$++.....$++.....$++..+..$++.....$++..+",
"+.$$......$$......$$...+..$$......$$......$$..++..$$......$$..+.",
"......................+.............+.........+..............+.+",
"$}}}}}}$}$}$$$$$$$}$}$@$@$@@@@$@$$$$$$$$}$}$$}$}$}}}}}}$}$}$$$$$"};
